X:316
T:Old Grey Cat, The
S:Can't rememeber (I've known it for years)
Z:Nigel Gatherer
L:1/8
M:4/4
K:Em
e2 e2 E3 F|GFGA BABc|d2 d2 D3 E|FAdB AFED|
e2 e2 E3 F|GFGA BABc|dcBA BAGF|E4 E2 z2:|
B2 e2 e3 d|Bdef gfed|A2 d2 d3 B|ABde fedf|
e2 B2 g2 B2|a2 B2 b3 a|gfed BAB^d|e4 e2 z2:|]
<end>
<start>
